X: 30505
T: Oliver Curve, The
R: reel
M: 4/4
K: Dmajor
|:FAAF AAdc|ADEF FAED|D2 BA AGGF|GAAF ~E3G|
~F3 A ~A2 dc|ADEF FAED|BAGF GAdA|1 G3 F D2 AG:|2 G3 F DAAF||
|:~E3F FD D2|~F3G GDD2|~G3A ~A3F|~E3d cAED|~E3F FDDA|
~F3G GDD2|1 ~G3A ~A3F|~E3d cAED:|2 GDDA ~A2d2-|dAdf e3z||

